src/icons/outline/metrics/sort-descending.svg

<svg width="24" height="24" viewBox="0 0 24 24" fill="none" xmlns="http://www.w3.org/2000/svg">
<g clip-path="url(#clip0_4879_381)">
<path d="M22.25 19.4163C22.6642 19.4163 23 19.7711 23 20.2083C23 20.6455 22.6642 21.0003 22.25 21.0003H1.75C1.33579 21.0003 1 20.6455 1 20.2083C1.00001 19.7711 1.33579 19.4163 1.75 19.4163H22.25Z" fill="#3C3B44"/>
<path d="M14.3135 10.7083C14.6924 10.7083 14.9998 11.0623 15 11.4993C15 11.9366 14.6925 12.2913 14.3135 12.2913H1.68652C1.3075 12.2913 1 11.9366 1 11.4993C1.00017 11.0623 1.30761 10.7083 1.68652 10.7083H14.3135Z" fill="#3C3B44"/>
<path d="M8.23047 2.00031C8.6553 2.00031 9 2.35507 9 2.7923C8.99983 3.22937 8.6552 3.58331 8.23047 3.58331H1.76953C1.3448 3.58331 1.00017 3.22937 1 2.7923C1 2.35507 1.3447 2.00031 1.76953 2.00031H8.23047Z" fill="#3C3B44"/>
</g>
<defs>
<clipPath id="clip0_4879_381">
<rect width="24" height="24" fill="white"/>
</clipPath>
</defs>
</svg>

<svg xmlns="http://www.w3.org/2000/svg" width="24" height="24" fill="none" viewBox="0 0 24 24"><g fill="currentColor" clip-path="url(#a)"><path d="M22.25 19.416c.414 0 .75.355.75.792s-.336.792-.75.792H1.75c-.414 0-.75-.355-.75-.792s.336-.792.75-.792zm-7.936-8.708c.378 0 .686.354.686.791s-.307.792-.687.792H1.688c-.38 0-.687-.354-.687-.792 0-.437.308-.79.687-.79zM8.23 2c.425 0 .77.355.77.792a.78.78 0 0 1-.77.791H1.77a.78.78 0 0 1-.77-.79C1 2.354 1.345 2 1.77 2z"/></g><defs><clipPath id="a"><path fill="currentColor" d="M0 0h24v24H0z"/></clipPath></defs></svg>
